Catalina-light/actions/22/view-task-child-add.svg

<svg xmlns="http://www.w3.org/2000/svg" viewBox="0 0 22 22">
  <defs id="defs3051">
    <style type="text/css" id="current-color-scheme">
      .ColorScheme-Text {
        color:#4d4d4d
      }
      </style>
  </defs>
 <path 
     style="fill:currentColor;fill-opacity:1;stroke:none"      
	 class="ColorScheme-Text"
        d="M 4 3 C 3.4459836 3 3 3.4459836 3 4 L 3 18 C 3 18.554016 3.4459836 19 4 19 L 18 19 C 18.554016 19 19 18.554016 19 18 L 19 4 C 19 3.4459836 18.554016 3 18 3 L 4 3 z M 10.300781 7.5 L 11.699219 7.5 L 11.699219 10.300781 L 14.5 10.300781 L 14.5 11.699219 L 11.699219 11.699219 L 11.699219 14.5 L 10.300781 14.5 L 10.300781 11.699219 L 7.5 11.699219 L 7.5 10.300781 L 10.300781 10.300781 L 10.300781 7.5 z "
     />
</svg>

<svg viewBox="0 0 22 22" xmlns="http://www.w3.org/2000/svg">
<defs>
<style id="current-color-scheme" type="text/css">.ColorScheme-Text {
        color:#363636
      }</style>
</defs>
<path class="ColorScheme-Text" d="m4 3c-0.55402 0-1 0.44598-1 1v14c0 0.55402 0.44598 1 1 1h14c0.55402 0 1-0.44598 1-1v-14c0-0.55402-0.44598-1-1-1h-14zm6.3008 4.5h1.3984v2.8008h2.8008v1.3984h-2.8008v2.8008h-1.3984v-2.8008h-2.8008v-1.3984h2.8008v-2.8008z" fill="#363636"/>
</svg>
